X:5078
T:Thirty Bob
M:4/4
R:Reel
L:1/8
Q:180
C:Aidan Crossey
K:A
|:a2af ecAc|BABc dBGB|a2af ecAc|BABc defg|
a2af ecAc|BABc dBGB|ABcd ecea|gefg aefg:||
|:a2af e2ec|d2dB G2GB|ABcd ecea|gedB Aceg|
a2af e2ec|d2dB G2GB|ABcd ecea|gedB Aceg:||
